src/assets/icons/chill.svg

<svg xmlns="http://www.w3.org/2000/svg" viewBox="0 0 100 100" width="100" height="100" preserveAspectRatio="xMidYMid meet" style="width: 100%; height: 100%; transform: translate3d(0px, 0px, 0px); content-visibility: visible;"><defs><clipPath id="__lottie_element_150"><rect width="100" height="100" x="0" y="0"></rect></clipPath><mask id="__lottie_element_155" mask-type="alpha"><g transform="matrix(0.1533699929714203,0,0,0.1533699929714203,41.71799850463867,61.04899978637695)" opacity="1" style="display: block;"><g opacity="1" transform="matrix(1,0,0,1,0,0)"><path stroke-linecap="round" stroke-linejoin="miter" fill-opacity="0" stroke-miterlimit="4" stroke="rgb(237,5,5)" stroke-opacity="1" stroke-width="14" d="M0 0"></path></g><g opacity="1" transform="matrix(1,0,0,1,24,0)"><path stroke-linecap="round" stroke-linejoin="miter" fill-opacity="0" stroke-miterlimit="4" stroke="rgb(237,5,5)" stroke-opacity="1" stroke-width="14" d="M0 0"></path></g><g opacity="1" transform="matrix(1,0,0,1,47.5,0)"><path stroke-linecap="round" stroke-linejoin="miter" fill-opacity="0" stroke-miterlimit="4" stroke="rgb(237,5,5)" stroke-opacity="1" stroke-width="14" d="M0 0"></path></g></g></mask><clipPath id="__lottie_element_159"><path d="M0,0 L524,0 L524,524 L0,524z"></path></clipPath></defs><g clip-path="url(#__lottie_element_150)"><g mask="url(#__lottie_element_155)" style="display: block;"><g clip-path="url(#__lottie_element_159)" transform="matrix(0.1533699929714203,0,0,0.1533699929714203,1.5350608825683594,20.866058349609375)" opacity="1"><g transform="matrix(6.519999980926514,0,0,6.519999980926514,298.3304443359375,93.98295593261719)" opacity="1" style="display: block;"><g opacity="1" transform="matrix(1,0,0,1,1.628000020980835,3.5269999504089355)"><path fill="rgb(243,176,100)" fill-opacity="1" d=" M-0.25999999046325684,3.2019999027252197 C-0.18799999356269836,3.250999927520752 -0.10400000214576721,3.2769999504089355 -0.017000000923871994,3.2769999504089355 C-0.017000000923871994,3.2769999504089355 -0.01600000075995922,3.2769999504089355 -0.01600000075995922,3.2769999504089355 C0.2240000069141388,3.2769999504089355 0.4189999997615814,3.0820000171661377 0.4189999997615814,2.8420000076293945 C0.4189999997615814,2.8010001182556152 0.4129999876022339,2.760999917984009 0.4020000100135803,2.7219998836517334 C0.20200000703334808,1.840999960899353 0.29499998688697815,1.1330000162124634 0.6809999942779541,0.6200000047683716 C1.1640000343322754,-0.024000000208616257 1.378000020980835,-0.8510000109672546 1.253000020980835,-1.5920000076293945 C1.1419999599456787,-2.253000020980835 0.7870000004768372,-2.8010001182556152 0.2280000001192093,-3.178999900817871 C0.0820000022649765,-3.2769999504089355 -0.11800000071525574,-3.2760000228881836 -0.2630000114440918,-3.177000045776367 C-0.41100001335144043,-3.075000047683716 -0.47999998927116394,-2.8959999084472656 -0.4390000104904175,-2.7200000286102295 C-0.22200000286102295,-1.7920000553131104 -0.42100000381469727,-1.2009999752044678 -0.9210000038146973,-0.3019999861717224 C-1.2450000047683716,0.28200000524520874 -1.378000020980835,0.9390000104904175 -1.2940000295639038,1.5479999780654907 C-1.1979999542236328,2.240000009536743 -0.8399999737739563,2.812999963760376 -0.25999999046325684,3.2019999027252197z"></path></g></g><g transform="matrix(6.519999980926514,0,0,6.519999980926514,323.8459167480469,102.19947814941406)" opacity="1" style="display: block;"><g opacity="1" transform="matrix(1,0,0,1,1.3539999723434448,2.750999927520752)"><path fill="rgb(243,176,100)" fill-opacity="1" d=" M-0.24199999868869781,2.430000066757202 C-0.17399999499320984,2.4769999980926514 -0.09399999678134918,2.500999927520752 -0.012000000104308128,2.500999927520752 C0.21400000154972076,2.500999927520752 0.3959999978542328,2.318000078201294 0.3959999978542328,2.0920000076293945 C0.3959999978542328,2.055000066757202 0.3919999897480011,2.0179998874664307 0.38199999928474426,1.9819999933242798 C0.2409999966621399,1.3619999885559082 0.3050000071525574,0.8669999837875366 0.5720000267028809,0.5120000243186951 C0.9409999847412109,0.019999999552965164 1.1039999723434448,-0.6140000224113464 1.0080000162124634,-1.1820000410079956 C0.921999990940094,-1.6920000314712524 0.6480000019073486,-2.115999937057495 0.2150000035762787,-2.4079999923706055 C0.07900000363588333,-2.5 -0.10400000214576721,-2.500999927520752 -0.24500000476837158,-2.4049999713897705 C-0.382999986410141,-2.309999942779541 -0.44999998807907104,-2.135999917984009 -0.41100001335144043,-1.9759999513626099 C-0.25699999928474426,-1.3179999589920044 -0.3919999897480011,-0.9160000085830688 -0.7549999952316284,-0.2630000114440918 C-1.003000020980835,0.18400000035762787 -1.1039999723434448,0.6869999766349792 -1.0399999618530273,1.152999997138977 C-0.9660000205039978,1.687999963760376 -0.6890000104904175,2.130000114440918 -0.24199999868869781,2.430000066757202z"></path></g></g><g transform="matrix(6.519999980926514,0,0,6.519999980926514,276.3388977050781,102.198486328125)" opacity="1" style="display: block;"><g opacity="1" transform="matrix(1,0,0,1,1.3539999723434448,2.750999927520752)"><path fill="rgb(243,176,100)" fill-opacity="1" d=" M-0.24199999868869781,2.430000066757202 C-0.17399999499320984,2.4769999980926514 -0.09399999678134918,2.500999927520752 -0.012000000104308128,2.500999927520752 C-0.012000000104308128,2.500999927520752 -0.010999999940395355,2.500999927520752 -0.010999999940395355,2.500999927520752 C0.21400000154972076,2.500999927520752 0.39800000190734863,2.318000078201294 0.39800000190734863,2.0920000076293945 C0.39800000190734863,2.055000066757202 0.3930000066757202,2.0179998874664307 0.38199999928474426,1.9819999933242798 C0.24199999868869781,1.3619999885559082 0.3059999942779541,0.8679999709129333 0.5720000267028809,0.5120000243186951 C0.9419999718666077,0.019999999552965164 1.1039999723434448,-0.6129999756813049 1.0080000162124634,-1.1820000410079956 C0.9229999780654907,-1.6920000314712524 0.6499999761581421,-2.115999937057495 0.21699999272823334,-2.4079999923706055 C0.08100000023841858,-2.5 -0.10300000011920929,-2.500999927520752 -0.24400000274181366,-2.4049999713897705 C-0.38199999928474426,-2.309000015258789 -0.4490000009536743,-2.135999917984009 -0.4099999964237213,-1.975000023841858 C-0.25600001215934753,-1.3179999589920044 -0.3919999897480011,-0.9150000214576721 -0.7549999952316284,-0.2619999945163727 C-1.003999948501587,0.18400000035762787 -1.1050000190734863,0.6869999766349792 -1.0399999618530273,1.152999997138977 C-0.9660000205039978,1.687999963760376 -0.6890000104904175,2.130000114440918 -0.24199999868869781,2.430000066757202z"></path></g></g></g></g><g transform="matrix(1,0,0,1,38.12300109863281,44.9530029296875)" opacity="1" style="display: block;"><g opacity="1" transform="matrix(1,0,0,1,13.12600040435791,8.038999557495117)"><path fill="rgb(243,176,100)" fill-opacity="1" d=" M9.064000129699707,-7.381999969482422 C8.586000442504883,-7.381999969482422 7.9079999923706055,-7.283999919891357 7.258999824523926,-6.8470001220703125 C7.2210001945495605,-6.926000118255615 7.183000087738037,-7.005000114440918 7.14300012588501,-7.084000110626221 C7.13700008392334,-7.0960001945495605 7.13100004196167,-7.109000205993652 7.125,-7.122000217437744 C7.020999908447266,-7.3379998207092285 6.804999828338623,-7.788000106811523 5.870999813079834,-7.788000106811523 C5.870999813079834,-7.788000106811523 -10.593999862670898,-7.788000106811523 -10.593999862670898,-7.788000106811523 C-10.944999694824219,-7.788000106811523 -11.428000450134277,-7.659999847412109 -11.736000061035156,-7.046000003814697 C-12.493000030517578,-5.534999847412109 -12.87600040435791,-3.9100000858306885 -12.87600040435791,-2.2179999351501465 C-12.87600040435791,1.8350000381469727 -10.597000122070312,5.556000232696533 -6.927000045776367,7.493000030517578 C-6.869999885559082,7.52400016784668 -6.353000164031982,7.788000106811523 -5.814000129699707,7.788000106811523 C-5.814000129699707,7.788000106811523 1.2549999952316284,7.788000106811523 1.2549999952316284,7.788000106811523 C1.746999979019165,7.788000106811523 2.1600000858306885,7.5960001945495605 2.2750000953674316,7.535999774932861 C3.9200000762939453,6.684000015258789 5.289000034332275,5.4770002365112305 6.304999828338623,4.041999816894531 C6.454999923706055,4.074999809265137 6.620999813079834,4.0960001945495605 6.807000160217285,4.0960001945495605 C7.948999881744385,4.0960001945495605 9.442000389099121,3.378000020980835 10.611000061035156,2.2699999809265137 C12.071999549865723,0.8830000162124634 12.87600040435791,-0.9610000252723694 12.87600040435791,-2.924999952316284 C12.87600040435791,-5.382999897003174 11.166000366210938,-7.381999969482422 9.064000129699707,-7.381999969482422z M7.599999904632568,1.6130000352859497 C8.057999610900879,0.40700000524520874 8.305000305175781,-0.8870000243186951 8.305000305175781,-2.2179999351501465 C8.305000305175781,-2.9700000286102295 8.229000091552734,-3.7079999446868896 8.07800006866455,-4.428999900817871 C8.435999870300293,-5.122000217437744 8.847000122070312,-5.123000144958496 9.064000129699707,-5.123000144958496 C9.904999732971191,-5.123000144958496 10.616999626159668,-4.116000175476074 10.616999626159668,-2.924999952316284 C10.616999626159668,-0.36800000071525574 8.781000137329102,1.0920000076293945 7.599999904632568,1.6130000352859497z"></path></g></g></g></svg>

<svg xmlns="http://www.w3.org/2000/svg" width="100" height="100" style="width:100%;height:100%;transform:translate3d(0,0,0);content-visibility:visible"><defs><clipPath id="a"><path d="M0 0h100v100H0z"/></clipPath><clipPath id="c"><path d="M0 0h524v524H0z"/></clipPath><mask id="b" mask-type="alpha"/></defs><g clip-path="url(#a)"><g mask="url(#b)" style="display:block"><g clip-path="url(#c)" transform="matrix(.15337 0 0 .15337 1.535 20.866)"><path fill="#F3B064" d="M-.26 3.202a.43.43 0 0 0 .243.075h.001a.435.435 0 0 0 .418-.555C.202 1.841.295 1.133.681.62c.483-.644.697-1.471.572-2.212A2.345 2.345 0 0 0 .228-3.179a.445.445 0 0 0-.491.002.432.432 0 0 0-.176.457c.217.928.018 1.519-.482 2.418-.324.584-.457 1.241-.373 1.85A2.328 2.328 0 0 0-.26 3.202z" transform="matrix(6.52 0 0 6.52 308.945 116.979)" style="display:block"/><path fill="#F3B064" d="M-.242 2.43a.408.408 0 0 0 .624-.448C.241 1.362.305.867.572.512c.369-.492.532-1.126.436-1.694a1.811 1.811 0 0 0-.793-1.226.41.41 0 0 0-.626.432c.154.658.019 1.06-.344 1.713-.248.447-.349.95-.285 1.416.074.535.351.977.798 1.277z" transform="matrix(6.52 0 0 6.52 332.674 120.136)" style="display:block"/><path fill="#F3B064" d="M-.242 2.43a.403.403 0 0 0 .23.071h.001a.41.41 0 0 0 .393-.519C.242 1.362.306.868.572.512c.37-.492.532-1.125.436-1.694a1.805 1.805 0 0 0-.791-1.226.411.411 0 0 0-.627.433c.154.657.018 1.06-.345 1.713-.249.446-.35.949-.285 1.415.074.535.351.977.798 1.277z" transform="matrix(6.52 0 0 6.52 285.167 120.135)" style="display:block"/></g></g><path fill="#F3B064" d="M9.064-7.382c-.478 0-1.156.098-1.805.535a12.918 12.918 0 0 0-.116-.237l-.018-.038c-.104-.216-.32-.666-1.254-.666h-16.465c-.351 0-.834.128-1.142.742a10.685 10.685 0 0 0-1.14 4.828c0 4.053 2.279 7.774 5.949 9.711.057.031.574.295 1.113.295h7.069a2.35 2.35 0 0 0 1.02-.252 11.281 11.281 0 0 0 4.03-3.494c.15.033.316.054.502.054 1.142 0 2.635-.718 3.804-1.826 1.461-1.387 2.265-3.231 2.265-5.195 0-2.458-1.71-4.457-3.812-4.457zM7.6 1.613a10.78 10.78 0 0 0 .478-6.042c.358-.693.769-.694.986-.694.841 0 1.553 1.007 1.553 2.198 0 2.557-1.836 4.017-3.017 4.538z" transform="translate(51.249 52.992)" style="display:block"/></g></svg>
